packages/katcn/src/icons/svg/umbrella.svg

<svg width="24" height="25" viewBox="0 0 24 25" fill="none" xmlns="http://www.w3.org/2000/svg">
<path d="M22.9218 10.468C21.799 5.46796 17.3078 1.96796 12 1.96796C6.69222 1.96796 2.20103 5.46796 1.07823 10.468C0.874084 11.268 1.07823 12.168 1.58859 12.868C2.20103 13.568 3.01761 13.968 3.83419 13.968H10.9793V20.668C10.9793 21.368 10.3668 21.968 9.65233 21.968C8.93782 21.968 8.32539 21.368 8.32539 20.668V20.168C8.32539 19.568 7.91709 19.168 7.30466 19.168C6.69222 19.168 6.28393 19.568 6.28393 20.168V20.668C6.28393 22.468 7.81502 23.968 9.65233 23.968C11.4896 23.968 13.0207 22.468 13.0207 20.668V13.968H20.1658C21.0845 13.968 21.901 13.568 22.4114 12.868C22.9218 12.268 23.1259 11.368 22.9218 10.468ZM20.7782 11.668C20.6762 11.768 20.472 11.968 20.1658 11.968H3.83419C3.52797 11.968 3.32383 11.768 3.22175 11.668C3.01761 11.468 3.01761 11.168 3.01761 10.968C4.03834 6.86796 7.71295 3.96796 12 3.96796C16.287 3.96796 19.9617 6.86796 20.9824 10.968C20.9824 11.168 20.9824 11.468 20.7782 11.668Z" fill="black"/>
</svg>

<svg xmlns="http://www.w3.org/2000/svg" fill="none" viewBox="0 0 24 25"><path fill="#000" d="M22.922 10.468c-1.123-5-5.614-8.5-10.922-8.5s-9.799 3.5-10.922 8.5c-.204.8 0 1.7.51 2.4.613.7 1.43 1.1 2.246 1.1h7.145v6.7c0 .7-.612 1.3-1.327 1.3-.714 0-1.327-.6-1.327-1.3v-.5c0-.6-.408-1-1.02-1s-1.021.4-1.021 1v.5c0 1.8 1.531 3.3 3.368 3.3 1.838 0 3.369-1.5 3.369-3.3v-6.7h7.145c.918 0 1.735-.4 2.245-1.1.51-.6.715-1.5.51-2.4m-2.144 1.2c-.102.1-.306.3-.612.3H3.834c-.306 0-.51-.2-.612-.3-.204-.2-.204-.5-.204-.7a9.23 9.23 0 0 1 8.982-7 9.23 9.23 0 0 1 8.982 7c0 .2 0 .5-.204.7"/></svg>
